frontend/public/svg/interface/dashboard.svg

<svg width="154" height="155" viewBox="0 0 154 155" fill="none" xmlns="http://www.w3.org/2000/svg">
<g clip-path="url(#clip0)">
<path d="M147.754 8.64794L148.453 8.51304C149.253 8.35804 150.009 8.21147 150.746 8.03896C151.547 7.87683 152.27 7.45016 152.799 6.82776C153.328 6.20529 153.633 5.42313 153.664 4.60663C153.695 3.79013 153.452 2.98673 152.973 2.32536C152.493 1.66399 151.805 1.18296 151.019 0.959567C149.476 0.499892 147.875 0.269647 146.265 0.276516C142.223 0.374445 138.116 0.51743 134.142 0.655565C128.745 0.842344 123.165 1.03614 117.679 1.1198C92.8631 1.49984 65.7555 1.84758 34.8053 2.18222C27.9566 2.25681 20.9996 2.08473 14.8615 1.93427C12.9062 1.88628 10.9113 1.72665 8.98328 1.57295C7.74566 1.47437 6.50802 1.37868 5.26976 1.3041C2.62532 1.15494 1.60164 2.60113 1.2146 3.84632C0.636316 5.70761 1.46616 7.48116 3.37931 8.47601C3.9443 8.75728 4.52506 9.0056 5.1187 9.21988L5.48175 9.36016C5.48175 10.6105 5.48436 11.8539 5.48955 13.0905C5.49668 15.9998 5.50509 19.0078 5.47591 21.9489C5.39682 30.0693 5.21661 38.327 5.03962 46.3124C4.54367 68.8734 4.03149 92.2025 5.75274 115.158C6.04123 119.005 7.28212 120.359 10.8582 120.732C13.8611 121.075 16.8823 121.233 19.9046 121.205C28.6075 121.016 37.4536 120.76 46.0086 120.512C49.506 120.409 53.004 120.309 56.5027 120.211C56.9981 120.197 57.4947 120.199 58.1332 120.203C57.9219 120.462 57.7164 120.715 57.518 120.958C56.6032 122.078 55.813 123.044 55.0791 124.061C50.5351 130.352 45.3843 137.486 40.3762 144.617C39.4934 145.968 38.8161 147.443 38.3664 148.993C38.0689 149.87 38.0693 150.822 38.3673 151.699C38.6654 152.577 39.2446 153.331 40.015 153.845C40.7204 154.367 41.576 154.645 42.4533 154.639C43.5487 154.624 44.6078 154.244 45.4634 153.56C46.2835 152.899 47.0182 152.138 47.6508 151.296C54.1851 142.884 60.7057 134.461 67.3198 125.919L72.0596 119.796L90.0384 119.208L93.6041 124.903C96.5403 129.598 99.4272 134.215 102.325 138.826C102.829 139.627 103.33 140.43 103.829 141.233C105.59 144.06 107.411 146.982 109.349 149.764C110.428 151.275 111.804 152.551 113.392 153.512C114.265 154.094 115.305 154.368 116.351 154.291C117.397 154.216 118.387 153.793 119.167 153.092C120.014 152.4 120.613 151.451 120.874 150.387C121.134 149.324 121.042 148.206 120.61 147.2C120.009 145.727 119.259 144.319 118.371 142.999C114.856 137.749 111.326 132.508 107.779 127.279C106.039 124.706 104.3 122.132 102.563 119.557C102.488 119.442 102.42 119.322 102.361 119.198C102.656 119.165 102.923 119.139 103.181 119.133C106.397 119.071 109.613 119.014 112.829 118.961C120.249 118.831 127.923 118.702 135.469 118.49C137.359 118.398 139.243 118.193 141.109 117.876C142.082 117.73 143.09 117.579 144.076 117.466C146.625 117.175 148.189 115.589 148.725 112.752C148.912 111.555 148.986 110.344 148.946 109.133V108.985C148.937 104.387 148.934 99.7898 148.936 95.191C148.936 83.341 148.932 71.0882 148.787 59.0358C148.657 48.2487 148.381 37.2842 148.116 26.6812C147.992 21.7113 147.872 16.7412 147.756 11.7712C147.739 10.9703 147.743 10.1682 147.749 9.33292C147.751 9.10853 147.753 8.88011 147.754 8.64794ZM16.4381 111.194L16.3895 111.18L16.3487 110.93C16.262 110.458 16.2037 109.981 16.1743 109.503C16.0498 106.325 15.9151 103.147 15.7704 99.9694C15.4385 92.4211 15.0948 84.616 14.9762 76.9406C14.7999 65.6106 14.7344 54.0869 14.6722 42.9431C14.6313 35.7631 14.5892 28.3382 14.5179 21.0357C14.4939 18.5544 14.3273 16.0789 14.1516 13.4575C14.0828 12.4289 14.0122 11.3765 13.948 10.2902C47.1633 11.3894 80.8383 10.6791 113.412 9.98651C121.645 9.81271 130.149 9.63313 138.545 9.48396V108.065C97.2164 107.474 56.2862 108.554 16.89 111.28C16.7368 111.266 16.5854 111.238 16.4381 111.194Z" fill="black"/>
<path d="M129.763 30.0757C130.806 28.9307 131.543 27.5392 131.902 26.0315C132.084 25.364 132.101 24.6619 131.95 23.9865C131.8 23.311 131.486 22.6827 131.037 22.1561C130.588 21.6296 130.017 21.2205 129.374 20.9648C128.732 20.7092 128.036 20.6147 127.348 20.6893C126.033 20.8397 124.777 21.3187 123.694 22.0824C122.265 23.1156 120.908 24.2456 119.633 25.4641L119.298 25.77C109.536 34.6674 99.7584 43.5905 89.9658 52.5385L81.165 60.5736L81.1436 60.5635C77.8146 56.7287 73.7458 53.7084 69.8106 50.788C67.8566 49.3385 65.8358 47.8384 63.9434 46.2644C61.319 44.084 59.3683 44.0225 56.4879 46.031C54.9151 47.1538 53.4837 48.4624 52.2246 49.9286C49.4181 53.1297 46.5999 56.4139 43.8751 59.5885C41.6618 62.1679 39.4431 64.742 37.2189 67.3103C35.1374 69.7027 33.0437 72.0855 30.9375 74.4578C28.2367 77.5163 25.4438 80.6792 22.7352 83.8259C21.5741 85.1223 20.6579 86.6191 20.0311 88.2437C19.8824 88.8689 19.877 89.5194 20.0152 90.1472C20.1534 90.775 20.4317 91.3632 20.8291 91.8677C21.0832 92.1713 21.4018 92.4145 21.7618 92.5792C22.1217 92.7439 22.5138 92.8263 22.9095 92.8198C23.6723 92.7997 24.4139 92.5643 25.049 92.1414C25.5619 91.8113 26.0322 91.4189 26.4493 90.9741L28.7832 88.5245C36.9778 79.934 45.4511 71.0517 53.7579 62.2884C55.1387 60.8318 56.4885 59.2982 57.918 57.6736C58.4788 57.0368 59.0597 56.3765 59.6684 55.6884C60.6802 56.7512 61.6788 57.8037 62.6643 58.8466C65.6394 61.9881 68.4498 64.9568 71.3659 67.9076C72.728 69.2909 74.2729 70.4816 75.9578 71.4473C78.2671 72.7547 80.4733 72.7651 82.3346 71.4778C83.8257 70.4784 85.2636 69.4031 86.6432 68.2546L90.922 64.5916C100.21 56.6405 109.813 48.419 119.184 40.2448C122.973 36.936 126.508 33.3988 129.763 30.0757Z" fill="black"/>
</g>
<defs>
<clipPath id="clip0">
<rect width="153" height="155" fill="white" transform="translate(0.777344)"/>
</clipPath>
</defs>
</svg>

<svg xmlns="http://www.w3.org/2000/svg" width="154" height="155" fill="none" viewBox="0 0 154 155"><g fill="#000" clip-path="url(#a)"><path d="m147.754 8.648.699-.135a61 61 0 0 0 2.293-.474 3.64 3.64 0 0 0 2.918-3.432A3.646 3.646 0 0 0 151.019.96a16.4 16.4 0 0 0-4.754-.683c-4.042.097-8.149.24-12.123.379-5.397.186-10.977.38-16.463.464-24.816.38-51.924.728-82.874 1.062-6.848.075-13.805-.097-19.943-.248-1.956-.048-3.95-.207-5.879-.361a193 193 0 0 0-3.713-.269c-2.645-.15-3.668 1.297-4.055 2.542-.579 1.862.251 3.635 2.164 4.63q.848.422 1.74.744l.363.14q0 1.875.008 3.73c.007 2.91.015 5.918-.014 8.859-.08 8.12-.26 16.378-.436 24.363-.496 22.561-1.009 45.89.713 68.846.288 3.847 1.53 5.201 5.105 5.574 3.003.343 6.024.501 9.047.473 8.703-.189 17.549-.445 26.104-.693q5.245-.154 10.494-.301c.495-.014.992-.012 1.63-.008l-.615.755c-.915 1.12-1.705 2.086-2.439 3.103-4.544 6.291-9.695 13.425-14.703 20.556a16.3 16.3 0 0 0-2.01 4.376 4.21 4.21 0 0 0 1.649 4.852 4.05 4.05 0 0 0 2.438.794 4.93 4.93 0 0 0 3.01-1.079 12.7 12.7 0 0 0 2.188-2.264c6.534-8.412 13.055-16.835 19.669-25.377l4.74-6.123 17.978-.588 3.566 5.695c2.936 4.695 5.823 9.312 8.721 13.923q.756 1.202 1.504 2.407c1.761 2.827 3.582 5.749 5.52 8.531a13.7 13.7 0 0 0 4.043 3.748 4.72 4.72 0 0 0 5.775-.42 5.04 5.04 0 0 0 1.443-5.892 23.3 23.3 0 0 0-2.239-4.201 3129 3129 0 0 0-10.592-15.72q-2.61-3.86-5.216-7.722a3 3 0 0 1-.202-.359c.295-.033.562-.059.82-.065q4.824-.093 9.648-.172c7.42-.13 15.094-.259 22.64-.471a48 48 0 0 0 5.64-.614 87 87 0 0 1 2.967-.41c2.549-.291 4.113-1.877 4.649-4.714a19.3 19.3 0 0 0 .221-3.619v-.148q-.013-6.896-.01-13.794c0-11.85-.004-24.103-.149-36.155-.13-10.787-.406-21.752-.671-32.355q-.186-7.455-.36-14.91a86 86 0 0 1-.007-2.438zM16.438 111.194l-.048-.014-.041-.25a12 12 0 0 1-.175-1.427q-.186-4.767-.404-9.534c-.332-7.548-.675-15.353-.794-23.028-.176-11.33-.242-22.854-.304-33.998-.04-7.18-.083-14.605-.154-21.907-.024-2.482-.19-4.957-.366-7.579-.07-1.028-.14-2.08-.204-3.167 33.215 1.1 66.89.39 99.464-.303 8.233-.174 16.737-.354 25.133-.503v98.581c-41.329-.591-82.259.489-121.655 3.215a2.3 2.3 0 0 1-.452-.086"/><path d="M129.763 30.076a9.16 9.16 0 0 0 2.139-4.044 4.25 4.25 0 0 0-2.528-5.067 4.24 4.24 0 0 0-2.026-.276 7.9 7.9 0 0 0-3.654 1.393 39 39 0 0 0-4.061 3.382l-.335.306q-14.644 13.346-29.332 26.769l-8.801 8.035-.021-.01c-3.33-3.835-7.398-6.856-11.333-9.776-1.954-1.45-3.975-2.95-5.868-4.524-2.624-2.18-4.575-2.242-7.455-.233a24 24 0 0 0-4.263 3.898c-2.807 3.2-5.625 6.485-8.35 9.66a2235 2235 0 0 1-6.656 7.721 948 948 0 0 1-6.282 7.148 989 989 0 0 0-8.202 9.368 14.4 14.4 0 0 0-2.704 4.418 4.26 4.26 0 0 0 .798 3.624 2.66 2.66 0 0 0 2.08.952 4.05 4.05 0 0 0 2.14-.679 7.4 7.4 0 0 0 1.4-1.167l2.334-2.45c8.195-8.59 16.668-17.472 24.975-26.236 1.38-1.456 2.73-2.99 4.16-4.614l1.75-1.986q1.517 1.595 2.996 3.159c2.975 3.141 5.786 6.11 8.702 9.06a21.3 21.3 0 0 0 4.592 3.54c2.31 1.308 4.515 1.318 6.377.03a52 52 0 0 0 4.308-3.222l4.279-3.663c9.288-7.951 18.891-16.173 28.262-24.347 3.789-3.309 7.324-6.846 10.579-10.17"/></g><defs><clipPath id="a"><path fill="#fff" d="M.777 0h153v155h-153z"/></clipPath></defs></svg>
